assets/static/svgs/duotones/no-reward.svg

<svg width="1em" height="1em"  viewBox="0 0 174 174" fill="none" xmlns="http://www.w3.org/2000/svg">
<symbol id="item"
width="1em"
height="1em"
viewBox="0 0 174 174"
fill="none"
>
 <path opacity="0.1" d="M77.2559 125.831C100.816 125.831 119.915 106.732 119.915 83.172C119.915 59.6121 100.816 40.513 77.2559 40.513C53.696 40.513 34.5969 59.6121 34.5969 83.172C34.5969 106.732 53.696 125.831 77.2559 125.831Z" fill="currentColor"/> <path d="M58.1818 129.311L58.1818 129.311L58.1772 129.305C57.2793 128.254 57.0201 126.843 57.4591 125.526C57.4591 125.525 57.4592 125.525 57.4592 125.525L64.1278 105.635C64.2469 105.299 64.5814 105.144 64.8817 105.249C65.2197 105.367 65.3764 105.703 65.271 106.004L65.2709 106.004L65.2688 106.01L58.6004 125.899C58.6001 125.9 58.5998 125.901 58.5996 125.902C58.278 126.834 58.4998 127.794 59.0903 128.524L59.4789 128.209L59.0903 128.524C59.7059 129.284 60.6726 129.598 61.5849 129.457L61.5881 129.457L70.0851 128.094L70.0865 128.093C71.3411 127.889 72.6279 128.323 73.5322 129.252C73.5326 129.253 73.533 129.253 73.5334 129.254L79.4758 135.457L79.4757 135.457L79.4833 135.465C80.1426 136.124 81.0668 136.452 82.0334 136.237L82.0334 136.237L82.0373 136.236C82.9603 136.023 83.702 135.35 84.0193 134.468L84.0194 134.468L84.0229 134.458L92.6918 108.654C92.6921 108.653 92.6925 108.652 92.6928 108.651C92.8119 108.315 93.1464 108.16 93.4467 108.265C93.7847 108.383 93.9414 108.719 93.836 109.02L93.8359 109.02L93.8339 109.026L85.1629 134.836L85.1625 134.837C84.7265 136.145 83.6495 137.098 82.3055 137.408C81.9686 137.486 81.6876 137.511 81.4029 137.511C80.3547 137.511 79.3523 137.077 78.602 136.301C78.6018 136.301 78.6016 136.301 78.6014 136.3L72.6604 130.099C72.66 130.098 72.6596 130.098 72.6592 130.097C72.0558 129.459 71.1377 129.138 70.2733 129.282C70.2728 129.282 70.2722 129.282 70.2717 129.282L61.7823 130.644C61.7815 130.644 61.7808 130.644 61.7801 130.644C60.4081 130.85 59.0497 130.357 58.1818 129.311Z" fill="#0F161F" stroke="#0F161F"/> <path d="M97.822 137.41L97.8221 137.41L97.8132 137.408C96.4694 137.098 95.3926 136.145 94.9563 134.838C94.9563 134.837 94.9562 134.837 94.9561 134.837L89.5045 118.337L89.5046 118.337L89.5017 118.329C89.3963 118.028 89.553 117.692 89.891 117.574C90.1909 117.469 90.525 117.624 90.6445 117.959L96.0658 134.455L96.0656 134.455L96.0703 134.468C96.3852 135.343 97.0939 136.022 98.0543 136.237C98.9814 136.45 99.9432 136.162 100.614 135.456C100.615 135.456 100.615 135.456 100.615 135.455L106.559 129.251L106.559 129.251L106.563 129.246C106.782 129.012 107.181 129 107.41 129.23C107.667 129.487 107.662 129.866 107.439 130.088L107.439 130.088L107.432 130.096L101.488 136.3C101.488 136.301 101.488 136.301 101.488 136.301C100.737 137.077 99.7349 137.511 98.6868 137.511C98.4003 137.511 98.123 137.485 97.822 137.41Z" fill="#0F161F" stroke="#0F161F"/> <path d="M122.467 83.259C123.018 81.519 124.294 79.953 125.512 78.416C127.078 76.473 128.528 74.646 128.528 72.703C128.528 70.76 127.049 68.933 125.512 66.99C124.294 65.453 123.018 63.887 122.467 62.147C121.887 60.32 121.974 58.261 122.061 56.26C122.177 53.824 122.264 51.533 121.191 50.054C120.089 48.546 117.856 47.937 115.507 47.27C113.593 46.748 111.592 46.197 110.055 45.066C108.547 43.964 107.416 42.253 106.343 40.6C104.98 38.541 103.704 36.598 101.906 36.018C100.195 35.467 98.078 36.25 95.816 37.091C93.902 37.787 91.93 38.541 89.987 38.541C88.044 38.541 86.043 37.816 84.158 37.091C82.418 36.453 80.765 35.815 79.315 35.815C78.88 35.815 78.474 35.873 78.068 35.989C76.27 36.569 74.994 38.512 73.631 40.571C72.529 42.224 71.427 43.935 69.919 45.037C68.382 46.139 66.41 46.69 64.467 47.241C62.118 47.908 59.885 48.517 58.783 50.025C57.71 51.504 57.797 53.795 57.913 56.231C58 58.232 58.087 60.32 57.507 62.118C56.956 63.858 55.68 65.424 54.462 66.961C52.896 68.904 51.446 70.731 51.446 72.674C51.446 74.617 52.925 76.444 54.462 78.387C55.68 79.924 56.956 81.49 57.507 83.23C58.087 85.057 58 87.116 57.913 89.117C57.797 91.553 57.71 93.844 58.783 95.323C59.885 96.831 62.118 97.44 64.467 98.107C66.381 98.629 68.382 99.18 69.919 100.311C71.427 101.413 72.558 103.124 73.631 104.777C74.994 106.836 76.27 108.779 78.068 109.359C79.75 109.91 81.896 109.127 84.158 108.286C86.072 107.59 88.044 106.836 89.987 106.836C91.93 106.836 93.931 107.561 95.816 108.286L95.062 110.345C93.322 109.707 91.553 109.04 89.987 109.04C88.421 109.04 86.652 109.707 84.912 110.345C83.056 111.041 81.142 111.737 79.286 111.737C78.648 111.737 78.01 111.65 77.372 111.447C74.849 110.635 73.283 108.257 71.775 105.966C70.76 104.4 69.774 102.95 68.614 102.08C67.425 101.21 65.685 100.717 63.887 100.224C61.277 99.499 58.551 98.745 57.014 96.628C55.477 94.54 55.593 91.727 55.709 89.03C55.796 87.145 55.854 85.347 55.39 83.897C54.955 82.534 53.853 81.2 52.722 79.75C51.011 77.604 49.213 75.371 49.213 72.645C49.213 69.919 50.982 67.686 52.722 65.54C53.882 64.119 54.955 62.756 55.39 61.393C55.854 59.943 55.796 58.174 55.709 56.26C55.593 53.563 55.477 50.75 57.014 48.662C58.551 46.545 61.277 45.791 63.887 45.066C65.714 44.573 67.425 44.08 68.614 43.21C69.803 42.34 70.76 40.89 71.775 39.324C73.283 37.033 74.849 34.684 77.372 33.843C79.808 33.06 82.389 34.017 84.912 34.945C86.652 35.583 88.421 36.25 89.987 36.25C91.553 36.25 93.322 35.583 95.062 34.945C97.585 34.017 100.166 33.031 102.602 33.843C105.125 34.655 106.691 37.033 108.199 39.324C109.214 40.89 110.2 42.34 111.36 43.21C112.549 44.08 114.289 44.573 116.087 45.066C118.697 45.791 121.423 46.545 122.96 48.662C124.497 50.779 124.381 53.563 124.265 56.26C124.178 58.145 124.12 59.943 124.584 61.393C125.019 62.756 126.121 64.09 127.252 65.54C128.963 67.686 130.761 69.919 130.761 72.645C130.761 75.371 128.992 77.604 127.252 79.75C126.092 81.171 125.019 82.534 124.584 83.897L122.467 83.259Z" fill="currentColor"/> <path d="M89.9578 98.622C75.676 98.622 64.0388 86.9849 64.0388 72.703C64.0388 58.4212 75.676 46.784 89.9578 46.784C104.24 46.784 115.877 58.4212 115.877 72.703C115.877 86.9849 104.24 98.622 89.9578 98.622ZM89.9578 47.988C76.3417 47.988 65.2428 59.0869 65.2428 72.703C65.2428 86.3191 76.3417 97.418 89.9578 97.418C103.574 97.418 114.673 86.3191 114.673 72.703C114.673 59.0869 103.574 47.988 89.9578 47.988Z" fill="#0F161F" stroke="#0F161F"/> <path d="M82.7948 83.832H79.9818C78.199 83.832 76.7408 82.3739 76.7408 80.591V71.34C76.7408 69.5572 78.199 68.099 79.9818 68.099H82.7948C84.5777 68.099 86.0358 69.5572 86.0358 71.34V80.591C86.0358 82.3764 84.6042 83.832 82.7948 83.832ZM79.9818 69.303C78.8647 69.303 77.9448 70.2229 77.9448 71.34V80.591C77.9448 81.7081 78.8647 82.628 79.9818 82.628H82.7948C83.912 82.628 84.8318 81.7081 84.8318 80.591V71.34C84.8318 70.2229 83.912 69.303 82.7948 69.303H79.9818Z" fill="#0F161F" stroke="#0F161F"/> <path d="M103.407 73.312H103.407L103.407 73.3208C103.431 74.686 102.302 75.828 100.891 75.828C100.558 75.828 100.289 75.5589 100.289 75.226C100.289 74.8932 100.558 74.624 100.891 74.624C101.643 74.624 102.203 74.0115 102.203 73.312C102.203 72.5603 101.59 72 100.891 72C100.558 72 100.289 71.7309 100.289 71.398C100.289 71.0652 100.558 70.796 100.891 70.796C102.294 70.796 103.407 71.932 103.407 73.312Z" fill="#0F161F" stroke="#0F161F"/> <path d="M100.398 79.685C100.065 79.685 99.7959 79.4159 99.7959 79.083C99.7959 78.7502 100.065 78.481 100.398 78.481C101.15 78.481 101.71 77.8684 101.71 77.169C101.71 76.4579 101.109 75.857 100.398 75.857C100.065 75.857 99.7959 75.5879 99.7959 75.255C99.7959 74.9222 100.065 74.653 100.398 74.653C101.801 74.653 102.914 75.789 102.914 77.169C102.914 78.549 101.801 79.685 100.398 79.685Z" fill="#0F161F" stroke="#0F161F"/> <path d="M84.9016 81.2511L84.9016 81.2511L84.8997 81.247C84.7511 80.9332 84.8953 80.5849 85.1638 80.4718L85.1739 80.4676L85.1838 80.4629C85.4976 80.3143 85.8459 80.4585 85.959 80.727L85.9623 80.7349L85.9658 80.7425C86.4202 81.727 87.4479 82.0972 88.2155 82.2423C89.0044 82.3915 89.7221 82.338 89.6968 82.338H89.8128H99.5278C100.28 82.338 100.84 81.7254 100.84 81.026C100.84 80.3149 100.239 79.714 99.5278 79.714C99.1949 79.714 98.9258 79.4449 98.9258 79.112C98.9258 78.7792 99.1949 78.51 99.5278 78.51C100.931 78.51 102.044 79.646 102.044 81.026C102.044 82.4029 100.905 83.542 99.5278 83.542H89.9257C89.8805 83.5342 89.8406 83.5315 89.8108 83.5302C89.7562 83.5279 89.7015 83.5297 89.657 83.5316C89.6288 83.5328 89.6024 83.5342 89.5767 83.5355C89.5113 83.5389 89.4507 83.542 89.3778 83.542C88.8282 83.542 87.9302 83.4792 87.0548 83.153C86.1864 82.8294 85.3676 82.2587 84.9016 81.2511Z" fill="#0F161F" stroke="#0F161F"/> <path d="M93.1382 67.6949C92.8949 67.4313 92.7905 67.0859 92.8323 66.7298C92.9162 66.0312 93.1145 64.9788 93.4322 63.5927L93.4322 63.5924C93.6736 62.5367 93.6527 61.5747 93.1811 60.9042C92.7475 60.2759 91.999 60.0394 91.5291 59.9219L91.0332 59.798L90.9202 60.2965L89.8096 65.1945L89.7487 65.2857C88.9288 66.4429 87.982 67.9218 87.2422 69.1112C86.8711 69.7079 86.5508 70.2339 86.3229 70.613C86.2091 70.8025 86.1179 70.956 86.0548 71.0637C86.0234 71.1173 85.9981 71.1611 85.9801 71.1928C85.9714 71.2082 85.9628 71.2237 85.9556 71.2371C85.9549 71.2384 85.9542 71.2398 85.9533 71.2415C85.7694 71.523 85.4155 71.6016 85.1435 71.4354L84.8828 71.862L85.1435 71.4354C84.848 71.2548 84.763 70.8921 84.9324 70.6147L84.9346 70.6113L84.9412 70.6002C85.0959 70.3422 87.0739 67.0427 88.6581 64.7514L88.7131 64.6719L88.7344 64.5776L89.8651 59.5913C90.0093 58.9763 90.5832 58.5799 91.2123 58.6425C92.0072 58.7248 93.3635 59.0487 94.1935 60.1792C94.8357 61.0694 95.018 62.27 94.6613 63.8338L94.661 63.8353C94.3981 65.0039 94.2512 65.7961 94.1626 66.3278L94.0656 66.91H94.6558H100.108C101.503 66.91 102.663 68.013 102.711 69.3569C102.735 70.0205 102.476 70.676 102.007 71.1983C101.491 71.7109 100.866 71.971 100.166 71.971C99.833 71.971 99.5638 71.7019 99.5638 71.369C99.5638 71.0362 99.833 70.767 100.166 70.767C100.531 70.767 100.881 70.6251 101.13 70.3261C101.337 70.0775 101.478 69.7644 101.478 69.397C101.478 68.6117 100.738 68.114 100.079 68.114H94.1048C93.7456 68.114 93.3877 67.9652 93.1382 67.6949Z" fill="#0F161F" stroke="#0F161F"/> <path d="M98.571 111.795C99.2276 111.795 99.76 111.263 99.76 110.606C99.76 109.949 99.2276 109.417 98.571 109.417C97.9143 109.417 97.382 109.949 97.382 110.606C97.382 111.263 97.9143 111.795 98.571 111.795Z" fill="currentColor"/> <path d="M123.482 84.825C124.107 84.825 124.613 84.3187 124.613 83.694C124.613 83.0694 124.107 82.563 123.482 82.563C122.857 82.563 122.351 83.0694 122.351 83.694C122.351 84.3187 122.857 84.825 123.482 84.825Z" fill="currentColor"/> <path d="M95.787 108.315L99.006 109.504L98.165 111.708L94.598 110.229L95.787 108.315Z" fill="currentColor"/> <path d="M124.149 130.384C113.332 130.384 104.545 121.597 104.545 110.78C104.545 99.963 113.332 91.176 124.149 91.176C134.966 91.176 143.753 99.963 143.753 110.78C143.753 121.597 134.937 130.384 124.149 130.384ZM124.149 93.409C114.55 93.409 106.749 101.21 106.749 110.809C106.749 120.408 114.55 128.209 124.149 128.209C133.748 128.209 141.549 120.408 141.549 110.809C141.549 101.21 133.719 93.409 124.149 93.409Z" fill="currentColor"/> <path d="M116.029 120.002C115.739 120.002 115.478 119.886 115.246 119.683C114.811 119.248 114.811 118.552 115.246 118.117L131.457 101.906C131.892 101.471 132.588 101.471 133.023 101.906C133.458 102.341 133.458 103.037 133.023 103.472L116.812 119.683C116.58 119.915 116.319 120.002 116.029 120.002Z" fill="currentColor"/> <path d="M132.24 120.002C131.95 120.002 131.689 119.886 131.457 119.683L115.246 103.472C114.811 103.037 114.811 102.341 115.246 101.906C115.681 101.471 116.377 101.471 116.812 101.906L133.023 118.117C133.458 118.552 133.458 119.248 133.023 119.683C132.82 119.915 132.53 120.002 132.24 120.002Z" fill="currentColor"/> 
</symbol>
</svg>

<svg width="1em" height="1em"    viewBox="0 0 174 174" fill="none" xmlns="http://www.w3.org/2000/svg">
<symbol id="item"
width="1em"
height="1em"
viewBox="0 0 174 174"
fill="none"
>
<path opacity=".1" d="M77.256 125.831c23.56 0 42.659-19.099 42.659-42.659s-19.099-42.659-42.66-42.659c-23.559 0-42.658 19.1-42.658 42.659 0 23.56 19.099 42.659 42.659 42.659Z" fill="currentColor"/><path d="m58.182 129.311-.005-.006c-.898-1.051-1.157-2.462-.718-3.779v-.001l6.669-19.89c.119-.336.453-.491.754-.386.338.118.494.454.389.755l-.002.006-6.669 19.889v.003c-.322.932-.1 1.892.49 2.622l.389-.315-.389.315c.616.76 1.583 1.074 2.495.933h.003l8.497-1.363.002-.001a3.938 3.938 0 0 1 3.445 1.159l.001.002 5.943 6.203.007.008c.66.659 1.584.987 2.55.772l.004-.001a2.775 2.775 0 0 0 1.982-1.768l.004-.01 8.669-25.804v-.003c.12-.336.454-.491.755-.386.338.118.494.454.389.755l-.002.006-8.671 25.81v.001c-.436 1.308-1.513 2.261-2.858 2.571a3.892 3.892 0 0 1-3.703-1.107v-.001l-5.942-6.201v-.002a2.725 2.725 0 0 0-2.387-.815h-.001l-8.49 1.362h-.002c-1.372.206-2.73-.287-3.598-1.333Z" fill="#0F161F" stroke="#0F161F"/><path d="m97.822 137.41-.009-.002c-1.344-.31-2.42-1.263-2.857-2.57v-.001l-5.452-16.5-.002-.008c-.106-.301.051-.637.389-.755.3-.105.634.05.753.385l5.422 16.496.004.013c.315.875 1.024 1.554 1.984 1.769a2.682 2.682 0 0 0 2.56-.781l.001-.001 5.944-6.204.004-.005a.602.602 0 0 1 .847-.016c.257.257.252.636.029.858l-.007.008-5.944 6.204v.001a3.894 3.894 0 0 1-2.801 1.21c-.287 0-.564-.026-.865-.101Z" fill="#0F161F" stroke="#0F161F"/><path d="M122.467 83.259c.551-1.74 1.827-3.306 3.045-4.843 1.566-1.943 3.016-3.77 3.016-5.713s-1.479-3.77-3.016-5.713c-1.218-1.537-2.494-3.103-3.045-4.843-.58-1.827-.493-3.886-.406-5.887.116-2.436.203-4.727-.87-6.206-1.102-1.508-3.335-2.117-5.684-2.784-1.914-.522-3.915-1.073-5.452-2.204-1.508-1.102-2.639-2.813-3.712-4.466-1.363-2.059-2.639-4.002-4.437-4.582-1.711-.551-3.828.232-6.09 1.073-1.914.696-3.886 1.45-5.829 1.45-1.943 0-3.944-.725-5.829-1.45-1.74-.638-3.393-1.276-4.843-1.276-.435 0-.841.058-1.247.174-1.798.58-3.074 2.523-4.437 4.582-1.102 1.653-2.204 3.364-3.712 4.466-1.537 1.102-3.509 1.653-5.452 2.204-2.349.667-4.582 1.276-5.684 2.784-1.073 1.479-.986 3.77-.87 6.206.087 2.001.174 4.089-.406 5.887-.551 1.74-1.827 3.306-3.045 4.843-1.566 1.943-3.016 3.77-3.016 5.713s1.479 3.77 3.016 5.713c1.218 1.537 2.494 3.103 3.045 4.843.58 1.827.493 3.886.406 5.887-.116 2.436-.203 4.727.87 6.206 1.102 1.508 3.335 2.117 5.684 2.784 1.914.522 3.915 1.073 5.452 2.204 1.508 1.102 2.639 2.813 3.712 4.466 1.363 2.059 2.639 4.002 4.437 4.582 1.682.551 3.828-.232 6.09-1.073 1.914-.696 3.886-1.45 5.829-1.45 1.943 0 3.944.725 5.829 1.45l-.754 2.059c-1.74-.638-3.509-1.305-5.075-1.305-1.566 0-3.335.667-5.075 1.305-1.856.696-3.77 1.392-5.626 1.392a6.26 6.26 0 0 1-1.914-.29c-2.523-.812-4.089-3.19-5.597-5.481-1.015-1.566-2.001-3.016-3.161-3.886-1.189-.87-2.929-1.363-4.727-1.856-2.61-.725-5.336-1.479-6.873-3.596-1.537-2.088-1.421-4.901-1.305-7.598.087-1.885.145-3.683-.319-5.133-.435-1.363-1.537-2.697-2.668-4.147-1.711-2.146-3.509-4.379-3.509-7.105 0-2.726 1.769-4.959 3.509-7.105 1.16-1.421 2.233-2.784 2.668-4.147.464-1.45.406-3.219.319-5.133-.116-2.697-.232-5.51 1.305-7.598 1.537-2.117 4.263-2.871 6.873-3.596 1.827-.493 3.538-.986 4.727-1.856 1.189-.87 2.146-2.32 3.161-3.886 1.508-2.291 3.074-4.64 5.597-5.481 2.436-.783 5.017.174 7.54 1.102 1.74.638 3.509 1.305 5.075 1.305 1.566 0 3.335-.667 5.075-1.305 2.523-.928 5.104-1.914 7.54-1.102 2.523.812 4.089 3.19 5.597 5.481 1.015 1.566 2.001 3.016 3.161 3.886 1.189.87 2.929 1.363 4.727 1.856 2.61.725 5.336 1.479 6.873 3.596s1.421 4.901 1.305 7.598c-.087 1.885-.145 3.683.319 5.133.435 1.363 1.537 2.697 2.668 4.147 1.711 2.146 3.509 4.379 3.509 7.105 0 2.726-1.769 4.959-3.509 7.105-1.16 1.421-2.233 2.784-2.668 4.147l-2.117-.638Z" fill="currentColor"/><path d="M89.958 98.622c-14.282 0-25.92-11.637-25.92-25.919s11.638-25.919 25.92-25.919c14.282 0 25.919 11.637 25.919 25.919s-11.637 25.919-25.92 25.919Zm0-50.634c-13.616 0-24.715 11.099-24.715 24.715s11.099 24.715 24.715 24.715 24.715-11.099 24.715-24.715-11.099-24.715-24.715-24.715Z" fill="#0F161F" stroke="#0F161F"/><path d="M82.795 83.832h-2.813a3.25 3.25 0 0 1-3.241-3.241V71.34a3.25 3.25 0 0 1 3.24-3.241h2.814a3.25 3.25 0 0 1 3.24 3.241v9.251a3.232 3.232 0 0 1-3.24 3.241Zm-2.813-14.529c-1.117 0-2.037.92-2.037 2.037v9.251c0 1.117.92 2.037 2.037 2.037h2.813c1.117 0 2.037-.92 2.037-2.037V71.34c0-1.117-.92-2.037-2.037-2.037h-2.813ZM103.407 73.312v.009c.024 1.365-1.105 2.507-2.516 2.507a.601.601 0 1 1 0-1.204 1.31 1.31 0 0 0 1.312-1.312A1.31 1.31 0 0 0 100.891 72a.601.601 0 1 1 0-1.204 2.513 2.513 0 0 1 2.516 2.516Z" fill="#0F161F" stroke="#0F161F"/><path d="M100.398 79.685a.601.601 0 1 1 0-1.204 1.31 1.31 0 0 0 1.312-1.312 1.33 1.33 0 0 0-1.312-1.312.601.601 0 1 1 0-1.204 2.513 2.513 0 0 1 2.516 2.516 2.513 2.513 0 0 1-2.516 2.516Z" fill="#0F161F" stroke="#0F161F"/><path d="m84.902 81.251-.002-.004c-.149-.314-.005-.662.264-.775l.01-.004.01-.005c.314-.149.662-.004.775.264l.003.008.004.008c.454.984 1.482 1.354 2.25 1.5.788.148 1.506.095 1.48.095h9.832a1.31 1.31 0 0 0 1.312-1.312 1.33 1.33 0 0 0-1.312-1.312.601.601 0 1 1 0-1.204 2.514 2.514 0 0 1 2.516 2.516 2.532 2.532 0 0 1-2.516 2.516h-9.602a.9.9 0 0 0-.115-.012c-.055-.002-.11 0-.154.002a3.621 3.621 0 0 1-.28.01c-.549 0-1.447-.063-2.322-.389-.869-.324-1.687-.894-2.153-1.902ZM93.138 67.695a1.196 1.196 0 0 1-.306-.965c.084-.699.283-1.751.6-3.137.242-1.056.22-2.018-.25-2.689-.434-.628-1.183-.865-1.653-.982l-.496-.124-.113.498-1.11 4.899-.061.09c-.82 1.158-1.767 2.637-2.507 3.826a119.687 119.687 0 0 0-1.187 1.953 11.57 11.57 0 0 0-.1.173c0 .001 0 .003-.002.005a.592.592 0 0 1-.81.193l-.26.427.26-.427a.593.593 0 0 1-.21-.82l.002-.004.006-.01c.155-.259 2.133-3.558 3.717-5.85l.055-.08.021-.093 1.131-4.987a1.242 1.242 0 0 1 1.347-.949c.795.083 2.151.407 2.981 1.537.643.89.825 2.091.468 3.655v.001a45.026 45.026 0 0 0-.498 2.493l-.097.582h6.042c1.395 0 2.555 1.103 2.603 2.447.024.663-.235 1.319-.704 1.841-.516.513-1.141.773-1.841.773a.602.602 0 1 1 0-1.204c.365 0 .715-.142.964-.44.207-.25.348-.563.348-.93 0-.785-.74-1.283-1.399-1.283h-5.974c-.36 0-.717-.149-.967-.42Z" fill="#0F161F" stroke="#0F161F"/><path d="M98.571 111.795a1.189 1.189 0 1 0 0-2.378 1.189 1.189 0 0 0 0 2.378ZM123.482 84.825a1.13 1.13 0 1 0 0-2.261 1.13 1.13 0 0 0 0 2.261Z" fill="currentColor"/><path d="m95.787 108.315 3.219 1.189-.841 2.204-3.567-1.479 1.189-1.914ZM124.149 130.384c-10.817 0-19.604-8.787-19.604-19.604 0-10.817 8.787-19.604 19.604-19.604 10.817 0 19.604 8.787 19.604 19.604 0 10.817-8.816 19.604-19.604 19.604Zm0-36.975c-9.599 0-17.4 7.801-17.4 17.4 0 9.599 7.801 17.4 17.4 17.4 9.599 0 17.4-7.801 17.4-17.4 0-9.599-7.83-17.4-17.4-17.4Z" fill="currentColor"/><path d="M116.029 120.002c-.29 0-.551-.116-.783-.319a1.103 1.103 0 0 1 0-1.566l16.211-16.211a1.103 1.103 0 0 1 1.566 0 1.103 1.103 0 0 1 0 1.566l-16.211 16.211a1.05 1.05 0 0 1-.783.319Z" fill="currentColor"/><path d="M132.24 120.002c-.29 0-.551-.116-.783-.319l-16.211-16.211a1.103 1.103 0 0 1 0-1.566 1.103 1.103 0 0 1 1.566 0l16.211 16.211a1.103 1.103 0 0 1 0 1.566c-.203.232-.493.319-.783.319Z" fill="currentColor"/>
</symbol>
</svg>
